!!!OTL: RIRARO DER SUMMERTAG IST DO
!!!ARE: Europa, Mitteleuropa, Deutschland, Rheinpfalz
!!!SCT: E1220
!!!YEM: Copyright 1995, estate of Helmut Schaffrath.
**kern
*ICvox
*Ivox
*M2/4
*k[b-]
*F:
=1
{4f
4a
=2
4.cc}
{8b-
=3
8a
8a
8g
8g
=4
4f
4r}
=5
{8cc
8cc
8a
8f
=6
8cc
8cc
8a
8f}
=7
{4cc
4a
=8
4cc
4a}
=9
{8f
8g
8a
8b-
=10
4cc
4a}
=11
{8f
8g
8a
8b-
=12
4cc
4a}
=13
{4f
4a
=14
4.cc}
{8b-
=15
8a
8a
8g
8g
=16
4f
4r}
==
!!!AGN: Ansinge -, Brauchtums - Lied, Kirchen - Fest, Sommer - Tags - Lied
!!!ONB: ESAC (Essen Associative Code) Database: ERK3
!!!AMT: simple duple
!!!AIN: vox
!!!EED: Helmut Schaffrath
!!!EEV: 1.0
*-
